Sources/FrostedUI/Resources/Icons.xcassets/codeblock16.imageset/codeblock-16.svg

<svg width="16" height="16" viewBox="0 0 16 16" fill="none" xmlns="http://www.w3.org/2000/svg" data-fui-icon="true">
  <path
    d="M12.167 14.25C13.3173 14.2498 14.2498 13.3173 14.25 12.167L14.25 3.83301C14.2498 2.68265 13.3173 1.75018 12.167 1.75L3.83301 1.75C2.68265 1.75018 1.75018 2.68265 1.75 3.83301L1.75 12.167C1.75018 13.3173 2.68265 14.2498 3.83301 14.25L12.167 14.25ZM3.83301 12.75C3.51109 12.7498 3.25018 12.4889 3.25 12.167L3.25 3.83301C3.25018 3.51108 3.51108 3.25018 3.83301 3.25L12.167 3.25C12.4889 3.25018 12.7498 3.51109 12.75 3.83301L12.75 12.167C12.7498 12.4889 12.4889 12.7498 12.167 12.75L3.83301 12.75ZM6.30273 10.5303C6.59557 10.8231 7.07037 10.823 7.36328 10.5303C7.65617 10.2374 7.65617 9.76262 7.36328 9.46973L5.89355 8L7.36328 6.53027C7.65617 6.23738 7.65617 5.76262 7.36328 5.46973C7.07037 5.177 6.59557 5.17689 6.30273 5.46973L4.77441 6.99805C4.22119 7.55127 4.22119 8.44873 4.77441 9.00195L6.30273 10.5303ZM8.63672 10.5303C8.92963 10.823 9.40443 10.8231 9.69727 10.5303L11.2256 9.00195C11.7789 8.44872 11.7789 7.55128 11.2256 6.99805L9.69727 5.46973C9.40443 5.17689 8.92963 5.177 8.63672 5.46973C8.34382 5.76262 8.34383 6.23738 8.63672 6.53027L10.1064 8L8.63672 9.46973C8.34383 9.76262 8.34382 10.2374 8.63672 10.5303Z"
    fill="currentColor"
  />
</svg>

<svg xmlns="http://www.w3.org/2000/svg" width="16" height="16" fill="none" data-fui-icon="true" viewBox="0 0 16 16"><path fill="currentColor" d="M12.167 14.25c1.15 0 2.083-.933 2.083-2.083V3.833c0-1.15-.933-2.083-2.083-2.083H3.833c-1.15 0-2.083.933-2.083 2.083v8.334c0 1.15.933 2.083 2.083 2.083zm-8.334-1.5a.583.583 0 0 1-.583-.583V3.833c0-.322.261-.583.583-.583h8.334c.322 0 .583.261.583.583v8.334a.583.583 0 0 1-.583.583zm2.47-2.22a.75.75 0 0 0 1.06-1.06L5.893 8l1.47-1.47a.75.75 0 1 0-1.06-1.06L4.774 6.998a1.417 1.417 0 0 0 0 2.004zm2.334 0a.75.75 0 0 0 1.06 0l1.529-1.528a1.417 1.417 0 0 0 0-2.004L9.697 5.47a.75.75 0 0 0-1.06 1.06L10.107 8l-1.47 1.47a.75.75 0 0 0 0 1.06"/></svg>
